lib/brands/icons/adobe-after-effects.svg

<svg xmlns="http://www.w3.org/2000/svg" fill="none" aria-hidden="true" viewBox="0 0 48 48"><g id="adobe-after-effects-Icon"><g id="Group"><path id="bg" fill="#00005B" d="M6 19.0286C6 14.4681 6 12.1879 6.88752 10.4461C7.6682 8.9139 8.9139 7.6682 10.4461 6.88752C12.1879 6 14.4681 6 19.0286 6H28.9714C33.5319 6 35.8121 6 37.5539 6.88752C39.0861 7.6682 40.3318 8.9139 41.1125 10.4461C42 12.1879 42 14.4681 42 19.0286V28.9714C42 33.5319 42 35.8121 41.1125 37.5539C40.3318 39.0861 39.0861 40.3318 37.5539 41.1125C35.8121 42 33.5319 42 28.9714 42H19.0286C14.4681 42 12.1879 42 10.4461 41.1125C8.9139 40.3318 7.6682 39.0861 6.88752 37.5539C6 35.8121 6 33.5319 6 28.9714V19.0286Z"/><g id="Vector"><path fill="#9999FF" d="M21.1579 28.5821H15.5793L14.4443 32.2053C14.4127 32.3397 14.289 32.4348 14.1544 32.4282H11.3289C11.1678 32.4282 11.1114 32.3374 11.1599 32.1558L15.9898 17.9477C16.0382 17.7991 16.0864 17.6538 16.1348 17.4637C16.1979 17.1333 16.2303 16.7974 16.2314 16.4606C16.2175 16.3611 16.3034 16.273 16.4004 16.2872H20.2402C20.3527 16.2872 20.4171 16.3285 20.4334 16.4111L25.9155 32.1805C25.9638 32.3458 25.9155 32.4284 25.7706 32.4282H22.631C22.5209 32.4407 22.4158 32.3653 22.3896 32.2549L21.1579 28.5821ZM16.4487 25.5271H20.2644C19.6375 23.3848 18.93 21.2707 18.3566 19.1118C17.7068 21.3513 17.1068 23.4282 16.4487 25.5271Z"/><path fill="#9999FF" d="M29.9927 27.183C30.2147 29.0228 31.7596 29.8999 33.4703 29.8625C34.4349 29.8435 35.4658 29.6938 36.3672 29.329C36.4475 29.2633 36.488 29.3043 36.488 29.4529V31.806C36.4956 31.9284 36.4444 32.0378 36.343 32.1032C35.2227 32.6121 33.9367 32.7656 32.7216 32.7461C29.0987 32.7461 26.6107 30.1934 26.6117 26.4795C26.6022 22.96 28.8855 19.9907 32.4318 19.9907C35.4379 19.9128 37.5191 22.3196 37.5275 25.3153C37.5275 25.861 37.497 26.4085 37.4309 26.9501C37.4181 27.0617 37.323 27.1483 37.2135 27.1483C34.8127 27.1483 32.4001 27.183 29.9927 27.183ZM29.9927 24.9266C31.3307 24.9266 32.6764 24.9739 34.0136 24.9142C34.2146 24.8936 34.3639 24.8556 34.3639 24.6465C34.3359 23.5359 33.3987 22.6225 32.3111 22.665C30.997 22.5836 30.156 23.6928 29.9927 24.9266Z"/></g></g></g></svg>

<svg xmlns="http://www.w3.org/2000/svg" fill="none" aria-hidden="true" viewBox="0 0 48 48"><path fill="#00005B" d="M6 19.029c0-4.56 0-6.841.888-8.583a8.143 8.143 0 0 1 3.558-3.558C12.188 6 14.468 6 19.03 6h9.942c4.56 0 6.841 0 8.583.888a8.143 8.143 0 0 1 3.558 3.558C42 12.188 42 14.468 42 19.03v9.942c0 4.56 0 6.841-.888 8.583a8.143 8.143 0 0 1-3.558 3.558C35.812 42 33.532 42 28.97 42h-9.94c-4.56 0-6.841 0-8.583-.888a8.143 8.143 0 0 1-3.558-3.558C6 35.812 6 33.532 6 28.97v-9.94Z"/><path fill="#99F" d="M21.158 28.582h-5.579l-1.135 3.623a.288.288 0 0 1-.29.223H11.33c-.161 0-.218-.09-.17-.272l4.83-14.208c.05-.149.097-.294.146-.484.063-.33.095-.667.096-1.003a.153.153 0 0 1 .17-.174h3.84c.112 0 .176.041.192.124l5.483 15.77c.048.165 0 .247-.145.247h-3.14a.226.226 0 0 1-.241-.173l-1.232-3.673Zm-4.71-3.055h3.816c-.627-2.142-1.334-4.256-1.907-6.415-.65 2.24-1.25 4.316-1.908 6.415Zm13.545 1.656c.222 1.84 1.767 2.717 3.477 2.68.965-.02 1.996-.17 2.897-.534.08-.066.121-.025.121.124v2.353a.32.32 0 0 1-.145.297c-1.12.51-2.406.663-3.621.643-3.623 0-6.111-2.553-6.11-6.267-.01-3.519 2.274-6.488 5.82-6.488 3.006-.078 5.087 2.329 5.096 5.324 0 .546-.031 1.093-.097 1.635a.223.223 0 0 1-.217.198c-2.401 0-4.814.035-7.221.035Zm0-2.256c1.338 0 2.683.047 4.02-.013.202-.02.35-.058.35-.268-.027-1.11-.964-2.024-2.052-1.981-1.314-.081-2.155 1.028-2.318 2.262Z"/></svg>
